launcher/android/assets/skins/day/svg/giga.svg

<svg enable-background="new 0 0 220.00 220.00" height="220" viewBox="0 0 220 220" width="220" xmlns="http://www.w3.org/2000/svg"><g stroke-linejoin="round"><path d="m110.936 25.0657c50.12 0 90.75 28.206 90.75 63 0 14.9183-7.469 28.6253-19.953 39.4173l-4.547 5.083-10 7-7 11.5-7 14-7.5 10.5-5-1-1.5-9.001-1.261-17.332c-8.525 1.841-17.59 2.833-26.989 2.833-50.1197 0-90.7498-28.206-90.7498-63.0003 0-34.794 40.6301-63 90.7498-63z" fill="#a9090b" stroke="#000" stroke-width="5"/><g fill="#e4e4e1" stroke="#fff" stroke-width="2"><path d="m81.5868 100.229c0 5.671-1.6199 10.064-4.8597 13.178-3.2398 3.115-7.9311 4.672-14.0741 4.672-4.0586 0-7.2757-.55-9.6512-1.651v-7.455c3.1006 1.619 6.2271 2.428 9.3794 2.428 3.1394 0 5.5718-.89 7.2967-2.669 1.7251-1.78 2.5877-4.201 2.5877-7.261v-2.5608h-.1166c-2.1555 3.4718-5.3337 5.2068-9.5347 5.2068-3.8969 0-6.9909-1.351-9.2824-4.054-2.2915-2.7036-3.4372-6.3282-3.4372-10.8746 0-5.0963 1.2736-9.1431 3.8206-12.1402 2.5473-2.9972 5.9019-4.4958 10.0641-4.4958 3.7221 0 6.5087 1.4607 8.3599 4.382h.1263v-3.7749h9.3212zm-9.2046-11.3156v-2.3331c0-1.8654-.5569-3.4556-1.6702-4.7708-1.1134-1.3152-2.56-1.9729-4.3401-1.9729-2.0325 0-3.6298.7872-4.7917 2.3617s-1.7429 3.7938-1.7429 6.6582c0 2.4534.5519 4.3961 1.6555 5.8283 1.1035 1.4322 2.6135 2.1483 4.5295 2.1483 1.8966 0 3.4307-.7256 4.6023-2.1768 1.1717-1.451 1.7576-3.3653 1.7576-5.7429z"/><path d="m94.9473 68.3034c-1.547 0-2.8141-.4727-3.8013-1.418s-1.4808-2.1071-1.4808-3.4856c0-1.41.4936-2.5639 1.4808-3.4619.9872-.8979 2.2543-1.3468 3.8013-1.3468 1.5664 0 2.8383.4489 3.8159 1.3468.9774.898 1.4658 2.0519 1.4658 3.4619 0 1.4353-.4884 2.6114-1.4658 3.5284-.9776.9167-2.2495 1.3752-3.8159 1.3752zm4.6606 35.2066h-9.3213v-30.3505h9.3213z"/><path d="m137.514 100.229c0 5.671-1.62 10.064-4.86 13.178-3.239 3.115-7.931 4.672-14.074 4.672-4.058 0-7.275-.55-9.651-1.651v-7.455c3.101 1.619 6.227 2.428 9.379 2.428 3.14 0 5.572-.89 7.297-2.669 1.725-1.78 2.588-4.201 2.588-7.261v-2.5608h-.117c-2.155 3.4718-5.333 5.2068-9.534 5.2068-3.897 0-6.991-1.351-9.283-4.054-2.291-2.7036-3.437-6.3282-3.437-10.8746 0-5.0963 1.274-9.1431 3.821-12.1402 2.547-2.9972 5.901-4.4958 10.064-4.4958 3.722 0 6.508 1.4607 8.36 4.382h.126v-3.7749h9.321zm-9.205-11.3156v-2.3331c0-1.8654-.556-3.4556-1.67-4.7708-1.113-1.3152-2.56-1.9729-4.34-1.9729-2.032 0-3.63.7872-4.792 2.3617-1.161 1.5745-1.742 3.7938-1.742 6.6582 0 2.4534.551 4.3961 1.655 5.8283s2.614 2.1483 4.53 2.1483c1.896 0 3.43-.7256 4.602-2.1768 1.172-1.451 1.757-3.3653 1.757-5.7429z"/><path d="m172.313 103.51h-9.321v-4.524h-.126c-2.104 3.421-5.218 5.131-9.341 5.131-3.042 0-5.436-.83-7.18-2.489-1.745-1.6603-2.617-3.8749-2.617-6.6444 0-5.8489 3.602-9.2254 10.807-10.1297l8.515-1.0907c0-3.0223-1.854-4.5335-5.563-4.5335-3.735 0-7.286 1.0117-10.652 3.035v-7.1324c1.353-.6829 3.206-1.2836 5.559-1.802 2.353-.5186 4.494-.7779 6.423-.7779 8.997 0 13.496 4.2998 13.496 12.8992zm-9.263-12.3013v-1.9823l-5.806.6924c-3.211.3794-4.816 1.7104-4.816 3.993 0 1.0306.39 1.8763 1.17 2.5371s1.837.9912 3.17.9912c1.858 0 3.369-.5881 4.535-1.7641 1.165-1.1762 1.747-2.6652 1.747-4.4673z"/></g></g></svg>

﻿<?xml version="1.0" encoding="utf-8"?>
<!DOCTYPE svg PUBLIC "-//W3C//DTD SVG 1.1//EN" "http://www.w3.org/Graphics/SVG/1.1/DTD/svg11.dtd">
<svg xmlns="http://www.w3.org/2000/svg" xmlns:xlink="http://www.w3.org/1999/xlink" version="1.1" baseProfile="full" width="220" height="220" viewBox="0 0 220.00 220.00" enable-background="new 0 0 220.00 220.00" xml:space="preserve">
	<path fill="#A9090B" fill-opacity="1" stroke-width="5" stroke-linejoin="round" stroke="#000000" stroke-opacity="1" d="M 110.936,25.0657C 161.056,25.0657 201.686,53.2717 201.686,88.0657C 201.686,102.984 194.217,116.691 181.733,127.483L 177.186,132.566L 167.186,139.566L 160.186,151.066L 153.186,165.066L 145.686,175.566L 140.686,174.566L 139.186,165.565L 137.925,148.233C 129.4,150.074 120.335,151.066 110.936,151.066C 60.8163,151.066 20.1862,122.86 20.1862,88.0657C 20.1862,53.2717 60.8163,25.0657 110.936,25.0657 Z "/>
	<g>
		<path fill="#E4E4E1" fill-opacity="1" stroke-width="2" stroke-linejoin="round" stroke="#FFFFFF" stroke-opacity="1" d="M 81.5868,100.229C 81.5868,105.9 79.9669,110.293 76.7271,113.407C 73.4873,116.522 68.796,118.079 62.653,118.079C 58.5944,118.079 55.3773,117.529 53.0018,116.428L 53.0018,108.973C 56.1024,110.592 59.2289,111.401 62.3812,111.401C 65.5206,111.401 67.953,110.511 69.6779,108.732C 71.403,106.952 72.2656,104.531 72.2656,101.471L 72.2656,98.9102L 72.149,98.9102C 69.9935,102.382 66.8153,104.117 62.6143,104.117C 58.7174,104.117 55.6234,102.766 53.3319,100.063C 51.0404,97.3594 49.8947,93.7348 49.8947,89.1884C 49.8947,84.0921 51.1683,80.0453 53.7153,77.0482C 56.2626,74.051 59.6172,72.5524 63.7794,72.5524C 67.5015,72.5524 70.2881,74.0131 72.1393,76.9344L 72.2656,76.9344L 72.2656,73.1595L 81.5868,73.1595L 81.5868,100.229 Z M 72.3822,88.9134L 72.3822,86.5803C 72.3822,84.7149 71.8253,83.1247 70.712,81.8095C 69.5986,80.4943 68.152,79.8366 66.3719,79.8366C 64.3394,79.8366 62.7421,80.6238 61.5802,82.1983C 60.4183,83.7728 59.8373,85.9921 59.8373,88.8565C 59.8373,91.3099 60.3892,93.2526 61.4928,94.6848C 62.5963,96.117 64.1063,96.8331 66.0223,96.8331C 67.9189,96.8331 69.453,96.1075 70.6246,94.6563C 71.7963,93.2053 72.3822,91.291 72.3822,88.9134 Z "/>
		<path fill="#E4E4E1" fill-opacity="1" stroke-width="2" stroke-linejoin="round" stroke="#FFFFFF" stroke-opacity="1" d="M 94.9473,68.3034C 93.4003,68.3034 92.1332,67.8307 91.146,66.8854C 90.1588,65.9401 89.6652,64.7783 89.6652,63.3998C 89.6652,61.9898 90.1588,60.8359 91.146,59.9379C 92.1332,59.04 93.4003,58.5911 94.9473,58.5911C 96.5137,58.5911 97.7856,59.04 98.7632,59.9379C 99.7406,60.8359 100.229,61.9898 100.229,63.3998C 100.229,64.8351 99.7406,66.0112 98.7632,66.9282C 97.7856,67.8449 96.5137,68.3034 94.9473,68.3034 Z M 99.6079,103.51L 90.2866,103.51L 90.2866,73.1595L 99.6079,73.1595L 99.6079,103.51 Z "/>
		<path fill="#E4E4E1" fill-opacity="1" stroke-width="2" stroke-linejoin="round" stroke="#FFFFFF" stroke-opacity="1" d="M 137.514,100.229C 137.514,105.9 135.894,110.293 132.654,113.407C 129.415,116.522 124.723,118.079 118.58,118.079C 114.522,118.079 111.305,117.529 108.929,116.428L 108.929,108.973C 112.03,110.592 115.156,111.401 118.308,111.401C 121.448,111.401 123.88,110.511 125.605,108.732C 127.33,106.952 128.193,104.531 128.193,101.471L 128.193,98.9102L 128.076,98.9102C 125.921,102.382 122.743,104.117 118.542,104.117C 114.645,104.117 111.551,102.766 109.259,100.063C 106.968,97.3594 105.822,93.7348 105.822,89.1884C 105.822,84.0921 107.096,80.0453 109.643,77.0482C 112.19,74.051 115.544,72.5524 119.707,72.5524C 123.429,72.5524 126.215,74.0131 128.067,76.9344L 128.193,76.9344L 128.193,73.1595L 137.514,73.1595L 137.514,100.229 Z M 128.309,88.9134L 128.309,86.5803C 128.309,84.7149 127.753,83.1247 126.639,81.8095C 125.526,80.4943 124.079,79.8366 122.299,79.8366C 120.267,79.8366 118.669,80.6238 117.507,82.1983C 116.346,83.7728 115.765,85.9921 115.765,88.8565C 115.765,91.3099 116.316,93.2526 117.42,94.6848C 118.524,96.117 120.034,96.8331 121.95,96.8331C 123.846,96.8331 125.38,96.1075 126.552,94.6563C 127.724,93.2053 128.309,91.291 128.309,88.9134 Z "/>
		<path fill="#E4E4E1" fill-opacity="1" stroke-width="2" stroke-linejoin="round" stroke="#FFFFFF" stroke-opacity="1" d="M 172.313,103.51L 162.992,103.51L 162.992,98.986L 162.866,98.986C 160.762,102.407 157.648,104.117 153.525,104.117C 150.483,104.117 148.089,103.287 146.345,101.628C 144.6,99.9677 143.728,97.7531 143.728,94.9836C 143.728,89.1347 147.33,85.7582 154.535,84.8539L 163.05,83.7632C 163.05,80.7409 161.196,79.2297 157.487,79.2297C 153.752,79.2297 150.201,80.2414 146.835,82.2647L 146.835,75.1323C 148.188,74.4494 150.041,73.8487 152.394,73.3303C 154.747,72.8117 156.888,72.5524 158.817,72.5524C 167.814,72.5524 172.313,76.8522 172.313,85.4516L 172.313,103.51 Z M 163.05,91.2087L 163.05,89.2264L 157.244,89.9188C 154.033,90.2982 152.428,91.6292 152.428,93.9118C 152.428,94.9424 152.818,95.7881 153.598,96.4489C 154.378,97.1097 155.435,97.4401 156.768,97.4401C 158.626,97.4401 160.137,96.852 161.303,95.676C 162.468,94.4998 163.05,93.0108 163.05,91.2087 Z "/>
	</g>
</svg>
